assets/static/svgs/duotones/you-play-we-pay.svg

<svg width="1em" height="1em"  viewBox="0 0 174 174" fill="none" xmlns="http://www.w3.org/2000/svg">
<symbol id="item"
width="1em"
height="1em"
viewBox="0 0 174 174"
fill="none"
>
 <path opacity="0.1" d="M132.502 81.6554V47.8471C132.502 44.3497 129.652 41.5 126.154 41.5H68.7711C65.1441 41.5 62.2944 44.3497 62.2944 47.8471V81.6554H59.8333V94.4167H134.833V81.6554H132.502Z" fill="currentColor"/> <path d="M88.5286 108.433H115.066V93.3612H96.8052L93.915 90.0848H76.9675H60.1515L57.2612 93.3612H39V108.433H65.1437" stroke="var(--color--bulma-100)" stroke-width="2" stroke-miterlimit="10" stroke-linejoin="round"/> <path d="M41.4961 93.3612V59.1555C41.4961 55.617 44.3864 52.7338 47.9335 52.7338H106.133C109.68 52.7338 112.57 55.617 112.57 59.1555V93.3612" stroke="var(--color--bulma-100)" stroke-width="2" stroke-miterlimit="10" stroke-linejoin="round"/> <path d="M65.6692 98.2103C64.8809 99.7829 64.4868 101.618 64.4868 103.584C64.4868 110.53 70.136 116.034 76.9675 116.034C83.799 116.034 89.4482 110.398 89.4482 103.584C89.4482 101.618 89.054 99.7829 88.2658 98.2103" stroke="currentColor" stroke-width="2" stroke-miterlimit="10" stroke-linejoin="round"/> <path d="M71.9407 98.2784C71.9407 98.2784 76.3946 98.2784 77.8949 98.2784C79.3952 98.2784 80.6119 98.8421 80.6119 100.339C80.6119 101.835 79.3952 103.049 77.8949 103.049H74.382" stroke="currentColor" stroke-width="2" stroke-miterlimit="10" stroke-linecap="round" stroke-linejoin="round"/> <path d="M71.9407 108.47H77.9864C79.4867 108.47 80.7034 107.256 80.7034 105.759C80.7034 104.263 79.4867 103.049 77.9864 103.049H74.382" stroke="currentColor" stroke-width="2" stroke-miterlimit="10" stroke-linecap="round" stroke-linejoin="round"/> <path d="M73.5339 98.2784L73.5339 108.609" stroke="currentColor" stroke-width="2" stroke-miterlimit="10" stroke-linecap="round" stroke-linejoin="round"/> <path d="M73.5339 110.523V108.616" stroke="currentColor" stroke-width="2" stroke-miterlimit="10" stroke-linecap="round" stroke-linejoin="round"/> <path d="M77.8491 110.523V108.616" stroke="currentColor" stroke-width="2" stroke-miterlimit="10" stroke-linecap="round" stroke-linejoin="round"/> <path d="M63.5833 103.046H58.5671C57.1278 103.046 56.0083 102.003 56.0083 100.662C56.0083 99.3214 57.1278 98.2784 58.5671 98.2784H95.67C97.1093 98.2784 98.2288 99.3214 98.2288 100.662C98.2288 102.003 97.1093 103.046 95.67 103.046H90.6666" stroke="var(--color--bulma-100)" stroke-width="2" stroke-miterlimit="10" stroke-linejoin="round"/> <path d="M48.9846 93.3612V62.9562C48.9846 61.7766 50.0356 60.7282 51.218 60.7282H102.849C104.031 60.7282 105.082 61.7766 105.082 62.9562V93.3612" stroke="var(--color--bulma-100)" stroke-width="2" stroke-miterlimit="10" stroke-linejoin="round"/> <path d="M112.702 86.1531V71.7369H119.402V79.4693C119.402 83.1388 116.38 86.1531 112.702 86.1531Z" stroke="var(--color--bulma-100)" stroke-width="2" stroke-miterlimit="10" stroke-linejoin="round"/> <path d="M119.402 73.9649V48.1667" stroke="var(--color--bulma-100)" stroke-width="2" stroke-miterlimit="10" stroke-linejoin="round"/> <path d="M119.402 48.1739C121.941 48.1739 124 46.1203 124 43.587C124 41.0537 121.941 39 119.402 39C116.862 39 114.804 41.0537 114.804 43.587C114.804 46.1203 116.862 48.1739 119.402 48.1739Z" stroke="var(--color--bulma-100)" stroke-width="2" stroke-miterlimit="10" stroke-linejoin="round"/> <path d="M67.1145 60.7282V90.0848" stroke="var(--color--bulma-100)" stroke-width="2" stroke-miterlimit="10" stroke-linejoin="round"/> <path d="M85.9011 60.7282V90.0848" stroke="var(--color--bulma-100)" stroke-width="2" stroke-miterlimit="10" stroke-linejoin="round"/> <path d="M48.9846 69.1158H67.1144" stroke="var(--color--bulma-100)" stroke-width="2" stroke-miterlimit="10" stroke-linejoin="round"/> <path d="M86.4268 69.1158H104.688" stroke="var(--color--bulma-100)" stroke-width="2" stroke-miterlimit="10" stroke-linejoin="round"/> <path d="M67.377 82.3525H85.6382" stroke="var(--color--bulma-100)" stroke-width="2" stroke-miterlimit="10" stroke-linejoin="round"/> <path d="M54.7651 76.586H60.8084L57.2613 86.4152" stroke="var(--color--bulma-100)" stroke-width="2" stroke-miterlimit="10" stroke-linecap="round" stroke-linejoin="round"/> <path d="M73.5518 65.1925H79.595L76.0479 75.0217" stroke="var(--color--bulma-100)" stroke-width="2" stroke-miterlimit="10" stroke-linecap="round" stroke-linejoin="round"/> <path d="M92.207 76.586H98.2503L94.7032 86.4152" stroke="var(--color--bulma-100)" stroke-width="2" stroke-miterlimit="10" stroke-linecap="round" stroke-linejoin="round"/> <path d="M97.4324 134.833C103.592 134.833 108.585 129.852 108.585 123.708C108.585 117.563 103.592 112.582 97.4324 112.582C91.273 112.582 86.2798 117.563 86.2798 123.708C86.2798 129.852 91.273 134.833 97.4324 134.833Z" stroke="currentColor" stroke-width="2" stroke-miterlimit="10" stroke-linejoin="round"/> <path d="M93.4492 119.579H98.721C99.8486 119.579 100.763 120.491 100.763 121.616C100.763 122.741 99.8486 123.653 98.721 123.653H96.0807" stroke="currentColor" stroke-width="2" stroke-miterlimit="10" stroke-linecap="round" stroke-linejoin="round"/> <path d="M93.4492 127.727H98.7898C99.9174 127.727 100.832 126.815 100.832 125.69C100.832 124.565 99.9174 123.653 98.7898 123.653H96.0807" stroke="currentColor" stroke-width="2" stroke-miterlimit="10" stroke-linecap="round" stroke-linejoin="round"/> <path d="M95.0425 119.579V127.727" stroke="currentColor" stroke-width="2" stroke-miterlimit="10" stroke-linecap="round" stroke-linejoin="round"/> <path d="M95.0425 118.784V117.35" stroke="currentColor" stroke-width="2" stroke-miterlimit="10" stroke-linecap="round" stroke-linejoin="round"/> <path d="M98.6868 118.784V117.35" stroke="currentColor" stroke-width="2" stroke-miterlimit="10" stroke-linecap="round" stroke-linejoin="round"/> <path d="M95.0425 130.065V128.632" stroke="currentColor" stroke-width="2" stroke-miterlimit="10" stroke-linecap="round" stroke-linejoin="round"/> <path d="M98.6868 130.065V128.632" stroke="currentColor" stroke-width="2" stroke-miterlimit="10" stroke-linecap="round" stroke-linejoin="round"/> <path d="M66.8684 118.803V126.273" stroke="var(--color--bulma-100)" stroke-width="2" stroke-miterlimit="10" stroke-linecap="round" stroke-linejoin="round"/> <path d="M74.6196 121.014V133.464" stroke="var(--color--bulma-100)" stroke-width="2" stroke-miterlimit="10" stroke-linecap="round" stroke-linejoin="round"/> 
</symbol>
</svg>

<svg width="1em" height="1em"    viewBox="0 0 174 174" fill="none" xmlns="http://www.w3.org/2000/svg">
<symbol id="item"
width="1em"
height="1em"
viewBox="0 0 174 174"
fill="none"
>
<path opacity=".1" d="M132.502 81.655V47.847c0-3.497-2.85-6.347-6.348-6.347H68.771c-3.627 0-6.477 2.85-6.477 6.347v33.808h-2.46v12.762h74.999V81.655h-2.331Z" fill="currentColor"/><path d="M88.529 108.433h26.537V93.361h-18.26l-2.891-3.276H60.151l-2.89 3.276H39v15.072h26.144" stroke="var(--color--bulma-100)" stroke-width="2" stroke-miterlimit="10" stroke-linejoin="round"/><path d="M41.496 93.361V59.155c0-3.538 2.89-6.421 6.438-6.421h58.199c3.547 0 6.437 2.883 6.437 6.422V93.36" stroke="var(--color--bulma-100)" stroke-width="2" stroke-miterlimit="10" stroke-linejoin="round"/><path d="M65.67 98.21c-.79 1.573-1.183 3.408-1.183 5.374 0 6.946 5.649 12.45 12.48 12.45 6.832 0 12.481-5.636 12.481-12.45 0-1.966-.394-3.801-1.182-5.374" stroke="currentColor" stroke-width="2" stroke-miterlimit="10" stroke-linejoin="round"/><path d="M71.94 98.278h5.955c1.5 0 2.717.564 2.717 2.061a2.714 2.714 0 0 1-2.717 2.71h-3.513" stroke="currentColor" stroke-width="2" stroke-miterlimit="10" stroke-linecap="round" stroke-linejoin="round"/><path d="M71.94 108.47h6.046c1.5 0 2.717-1.214 2.717-2.711a2.714 2.714 0 0 0-2.717-2.71h-3.604M73.534 98.278v10.331M73.534 110.523v-1.907M77.85 110.523v-1.907" stroke="currentColor" stroke-width="2" stroke-miterlimit="10" stroke-linecap="round" stroke-linejoin="round"/><path d="M63.583 103.046h-5.016c-1.44 0-2.559-1.043-2.559-2.384 0-1.34 1.12-2.384 2.56-2.384H95.67c1.44 0 2.559 1.043 2.559 2.384s-1.12 2.384-2.559 2.384h-5.003M48.985 93.361V62.956c0-1.18 1.05-2.228 2.233-2.228h51.631c1.182 0 2.233 1.049 2.233 2.228v30.405M112.702 86.153V71.737h6.7v7.732c0 3.67-3.022 6.684-6.7 6.684ZM119.402 73.965V48.167M119.402 48.174A4.593 4.593 0 0 0 124 43.587 4.593 4.593 0 0 0 119.402 39a4.592 4.592 0 0 0-4.598 4.587 4.592 4.592 0 0 0 4.598 4.587ZM67.115 60.728v29.357M85.901 60.728v29.357M48.985 69.116h18.13M86.427 69.116h18.261M67.377 82.353h18.261" stroke="var(--color--bulma-100)" stroke-width="2" stroke-miterlimit="10" stroke-linejoin="round"/><path d="M54.765 76.586h6.043l-3.547 9.83M73.552 65.192h6.043l-3.547 9.83M92.207 76.586h6.043l-3.547 9.83" stroke="var(--color--bulma-100)" stroke-width="2" stroke-miterlimit="10" stroke-linecap="round" stroke-linejoin="round"/><path d="M97.432 134.833c6.16 0 11.153-4.981 11.153-11.125 0-6.145-4.993-11.126-11.153-11.126-6.159 0-11.152 4.981-11.152 11.126 0 6.144 4.993 11.125 11.152 11.125Z" stroke="currentColor" stroke-width="2" stroke-miterlimit="10" stroke-linejoin="round"/><path d="M93.45 119.579h5.271a2.04 2.04 0 0 1 2.042 2.037 2.04 2.04 0 0 1-2.042 2.037h-2.64" stroke="currentColor" stroke-width="2" stroke-miterlimit="10" stroke-linecap="round" stroke-linejoin="round"/><path d="M93.45 127.727h5.34a2.04 2.04 0 0 0 2.042-2.037 2.04 2.04 0 0 0-2.042-2.037h-2.71M95.043 119.579v8.148M95.043 118.784v-1.434M98.687 118.784v-1.434M95.043 130.065v-1.433M98.687 130.065v-1.433" stroke="currentColor" stroke-width="2" stroke-miterlimit="10" stroke-linecap="round" stroke-linejoin="round"/><path d="M66.868 118.803v7.47M74.62 121.014v12.45" stroke="var(--color--bulma-100)" stroke-width="2" stroke-miterlimit="10" stroke-linecap="round" stroke-linejoin="round"/>
</symbol>
</svg>
